src/lib/assets/icons/logo.svg

<svg xmlns="http://www.w3.org/2000/svg" width="265" height="256" viewBox="0 0 265 256" fill="none">
    <g clip-path="url(#clip0_504_2)">
        <path
            d="M52.4768 37.6085C82.9806 -6.35693 141.855 -9.63532 175.164 16.6796C173.557 16.0649 171.95 15.3624 170.314 14.8062C137.502 3.94658 107.758 9.68375 81.2276 31.7836C77.4292 34.945 74.3321 38.8673 70.826 42.409C70.3291 42.9067 69.4819 43.4335 68.8682 43.3749C65.5373 43.1115 55.72 39.5698 52.4768 37.6085Z"
            fill="#C5A664" />
        <path
            d="M36.6118 87.4861C39.4169 90.4424 42.1634 93.4865 45.1144 96.3553C46.2539 97.4674 47.7733 98.2872 49.2342 98.9604C50.4904 99.5166 50.8119 100.307 50.8412 101.566C51.4255 121.675 58.1749 139.501 70.6217 155.22C70.9432 155.6 70.914 156.273 71.0308 156.8C70.4465 156.625 69.7452 156.625 69.307 156.273C54.0551 143.745 43.7702 127.968 39.3292 108.708C37.839 102.209 37.4884 95.4185 36.641 88.7739C36.5533 88.2471 36.6118 87.6909 36.6118 87.4861Z"
            fill="#C5A664" />
        <path
            d="M213.849 83.8567C217.705 83.2714 221.68 82.6566 225.888 81.9834C228.05 92.3747 228.254 102.971 226.384 113.567C222.789 133.969 213.264 151.181 197.751 164.821C167.48 191.458 125.26 192.599 95.4572 174.393C95.6324 173.866 95.8369 173.281 96.0415 172.695C125.493 181.447 153.075 177.642 177.765 159.201C202.513 140.731 213.849 115.265 213.849 83.8567Z"
            fill="#C5A664" />
        <path
            d="M189.774 26.4268C199.007 32.8372 206.516 40.5648 212.799 49.8145C210.694 50.8097 208.737 51.7171 206.897 52.5953C204.296 47.9704 201.958 43.3163 199.153 39.0134C196.348 34.7399 193.047 30.7882 189.774 26.4268Z"
            fill="#C5A664" />
        <path
            d="M85.4341 157.211C81.4604 160.372 77.3113 163.328 73.5714 166.753C60.9784 178.198 50.6644 191.575 41.0224 205.507C38.7725 208.758 36.5229 212.006 33.8348 215.108C34.0977 214.115 34.1269 212.973 34.6236 212.124C39.5323 204.015 44.2071 195.732 49.4958 187.887C59.3131 173.368 70.7372 160.138 83.5057 148.166C90.6932 141.433 98.4362 135.287 105.799 128.73C108.224 126.564 110.415 124.105 112.373 121.529C114.828 118.28 114.097 115.411 110.591 113.304C106.968 111.167 102.965 110.289 98.8743 109.411C85.2586 106.425 72.0813 102.21 60.774 93.6334C59.4883 92.6675 58.3488 91.4673 57.1509 90.3843C57.2093 90.2965 57.2676 90.2379 57.3553 90.1501C61.5627 92.1407 65.9454 92.8431 70.5036 91.7307C70.6789 91.6723 70.8833 91.6429 71.0295 91.5551C71.1465 91.4967 71.2047 91.4089 71.497 91.1453C60.8031 87.223 50.2554 83.2713 41.6652 74.7535C47.5382 75.2511 53.031 76.2171 58.9623 74.5485C49.0867 72.9972 40.4089 69.6017 31.9649 65.3866C23.7253 61.2887 14.8722 60.7911 5.84375 61.7863C5.61 61.8155 5.40547 61.7863 5.14252 61.6107C12.4471 56.4296 20.5405 54.1173 29.306 54.9661C27.1438 51.9803 24.9233 48.8776 22.6734 45.7749C22.8487 45.5993 22.9948 45.4529 23.1701 45.2773C31.4973 50.3998 40.1751 54.7319 50.1092 56.1076C49.4081 55.7856 48.7068 55.4344 47.9764 55.1711C41.1394 52.6243 34.9158 49.024 30.913 42.76C28.8384 39.5109 27.4652 35.7934 26.1504 32.1637C23.55 25.0216 21.2125 17.7916 18.7874 10.5908C18.5829 10.0054 18.4952 9.3907 18.3491 8.776C18.4076 8.71746 18.4368 8.68818 18.4952 8.62964C21.8845 13.6643 24.9524 18.9624 28.7508 23.6751C36.0553 32.7492 45.6389 38.7791 56.4204 42.9356C66.4715 46.8287 76.9316 48.6142 87.6838 48.6434C88.8818 48.6434 90.0504 48.4678 91.2484 48.38C97.355 47.7946 103.082 49.0532 108.633 51.5413C117.486 55.5222 126.047 59.9129 133.352 66.4404C134.521 67.4941 135.689 68.5479 136.741 69.7189C138.757 71.9726 138.845 73.524 136.975 75.9243C132.972 81.1054 129.787 86.7254 127.917 92.9895C127.011 96.063 126.486 99.3707 126.544 102.561C126.661 110.26 132.592 113.831 138.991 114.387C146.296 115.031 153.366 113.421 160.291 111.43C166.427 109.674 172.446 107.537 178.436 105.576C178.436 103.088 178.436 100.746 178.436 97.9071C179.458 99.6633 180.188 101.039 181.036 102.298C183.344 105.81 186.967 107.801 190.24 110.23C192.81 112.133 195.324 114.123 197.631 116.319C199.589 118.163 200.319 120.622 199.91 123.285C199.647 123.373 199.501 123.49 199.414 123.461C193.98 121.353 188.516 122.934 183.052 123.256C171.569 123.958 161.343 129.081 150.824 133.091C140.978 136.838 131.19 140.789 122.22 146.439C119.327 148.283 116.435 150.273 113.922 152.586C110.094 156.098 108.166 160.606 108.341 165.904C108.37 166.958 108.341 168.041 108.341 169.563C105.332 161.894 106.822 154.518 107.727 147.053C107.435 147.141 107.231 147.171 107.143 147.258C99.6633 157.006 93.323 167.368 90.0213 179.31C84.1485 200.503 87.7131 220.407 98.962 238.994C102.235 244.41 106.325 249.299 110.036 254.449C110.299 254.802 110.532 255.181 110.766 255.534C110.679 255.592 110.62 255.68 110.562 255.767C108.838 254.625 106.968 253.688 105.448 252.314C91.9204 239.961 84.1191 224.622 81.6357 206.503C79.9702 194.24 81.3435 182.208 84.1191 170.266C84.1776 169.973 84.2361 169.68 84.1485 169.27C71.2341 182.208 60.9199 197.255 49.6417 211.509C49.4958 211.422 49.3788 211.333 49.2327 211.274C49.6125 210.368 49.9631 209.459 50.3722 208.581C55.8361 196.902 62.9653 186.277 70.825 176.12C75.3537 170.266 80.0872 164.528 84.7037 158.762C85.0249 158.382 85.2586 157.942 85.5509 157.533C85.6677 157.386 85.7847 157.269 85.8723 157.123C85.96 157.035 86.0476 156.947 86.1061 156.859C85.96 156.889 85.8432 156.889 85.697 156.918C85.7262 157.006 85.5801 157.094 85.4341 157.211Z"
            fill="#C5A664" />
        <path
            d="M239.764 46.7411C233.189 49.7854 228.076 54.8785 222.35 59.1522C218.901 61.7281 214.9 62.9575 210.838 64.099C210.312 64.2454 209.785 64.421 209.259 64.6844C216.331 64.3038 223.459 65.8552 230.531 63.894C220.334 71.329 209.727 77.6809 196.814 78.6468C197.923 80.0812 198.684 80.286 207.302 81.4276C198.069 86.0524 191.145 94.1312 181.269 98.6977C180.071 94.8046 178.931 91.1457 177.792 87.4574C177.646 87.4282 177.5 87.4282 177.354 87.399C176.915 91.5261 176.331 95.6242 176.126 99.7807C176.039 101.478 175.396 102.357 174.081 102.942C166.543 106.367 158.654 108.533 150.414 109.44C149.333 109.557 148.223 109.645 146.616 109.791C147.23 108.913 147.493 108.416 147.872 107.977C152.839 102.122 157.894 96.356 162.774 90.4431C168.559 83.4181 173.088 75.7197 174.549 66.5578C174.841 64.6844 176.243 64.4796 177.704 64.1868C181.707 63.3964 185.739 62.7819 189.655 61.6695C207.361 56.7518 223.285 48.2632 237.864 37.1401C238.653 36.5547 239.443 35.9694 240.378 35.501C238.477 40.3307 235.498 44.4287 232.021 48.6144C234.885 47.9412 237.338 47.3559 239.764 46.7411Z"
            fill="#C5A664" />
        <path
            d="M0.116871 10.7964C6.66174 11.9672 12.1255 14.748 15.1058 21.0706C16.2161 23.3831 17.2679 25.7541 18.1153 28.1542C19.6638 32.5449 21.5337 36.76 24.2802 40.8287C23.2284 40.4189 22.1765 40.0677 21.154 39.6287C15.5441 37.1406 11.4243 33.2475 9.67121 27.2176C7.85969 20.9242 4.70413 15.4798 0 10.9427L0.116871 10.7964Z"
            fill="#C5A664" />
        <path
            d="M253.38 53.9415C250.4 56.8978 246.806 58.9467 242.715 59.4443C238.479 59.9421 234.154 59.5615 229.976 59.5615C230.122 59.4443 230.472 59.1225 230.883 58.8589C234.565 56.2538 238.188 53.5317 241.985 51.1021C244.177 49.697 246.573 48.4676 249.056 47.7358C253.03 46.5357 256.389 44.6039 259.107 41.4426C259.253 41.267 259.516 41.1792 259.721 41.062L259.808 41.1206C257.588 46.9163 253.643 51.2191 248.413 54.7317C249.202 54.6439 250.02 54.6147 250.809 54.4977C251.657 54.3513 252.503 54.1171 253.38 53.9415Z"
            fill="#C5A664" />
        <path
            d="M264.394 22.7686C261.678 29.062 259.458 35.7944 252.912 39.5117C249.992 41.1803 246.777 41.912 243.153 42.029C246.747 36.3798 249.757 30.6133 256.302 27.8326C259.223 26.5739 261.737 24.4663 264.394 22.7686Z"
            fill="#C5A664" />
        <path
            d="M45.3761 84.1483C44.6748 83.8557 43.9444 83.5629 43.2431 83.2701C39.1526 81.5431 35.0621 79.7576 30.9423 78.1476C28.3126 77.1232 25.9753 75.7475 24.2221 73.5227C21.914 70.5664 18.6415 69.659 14.6678 69.337C21.3295 67.2587 27.0563 68.8101 32.111 72.2642C36.6983 75.3961 40.7303 79.3478 44.9962 82.9481C45.2592 83.1823 45.4053 83.5337 45.6099 83.8263C45.5221 83.9435 45.4638 84.0313 45.3761 84.1483Z"
            fill="#C5A664" />
        <path
            d="M40.4958 87.4861C48.0926 90.3252 55.7185 93.1061 61.7959 98.287C55.9231 99.6628 45.5798 95.7991 40.4958 87.4861Z"
            fill="#C5A664" />
        <path
            d="M213.03 80.3751C215.278 77.9748 218.055 76.482 221.18 75.6331C224.658 74.6671 228.163 73.8769 231.729 73.1157C228.017 75.838 224.862 79.4676 219.632 79.5555C217.412 79.5847 215.191 80.0531 212.971 80.3457L213.03 80.3751Z"
            fill="#C5A664" />
    </g>
    <defs>
        <clipPath id="clip0_504_2">
            <rect width="265" height="256" fill="white" />
        </clipPath>
    </defs>
</svg>

<svg xmlns="http://www.w3.org/2000/svg" width="265" height="256" fill="none"><g fill="#C5A664" clip-path="url(#a)"><path d="M52.477 37.608C82.98-6.357 141.855-9.635 175.164 16.68c-1.607-.615-3.214-1.318-4.85-1.874-32.812-10.86-62.556-5.122-89.086 16.978-3.799 3.161-6.896 7.083-10.402 10.625-.497.498-1.344 1.025-1.958.966-3.33-.264-13.148-3.805-16.391-5.767ZM36.612 87.486c2.805 2.956 5.551 6 8.502 8.87 1.14 1.111 2.66 1.931 4.12 2.604 1.256.557 1.578 1.347 1.607 2.606.584 20.109 7.334 37.935 19.78 53.654.322.38.293 1.053.41 1.58-.585-.175-1.286-.175-1.724-.527-15.252-12.528-25.537-28.305-29.978-47.565-1.49-6.499-1.84-13.29-2.688-19.934-.088-.527-.03-1.083-.03-1.288ZM213.849 83.857c3.856-.586 7.831-1.2 12.039-1.874 2.162 10.392 2.366 20.988.496 31.584-3.595 20.402-13.12 37.614-28.633 51.254-30.271 26.637-72.491 27.778-102.294 9.572.175-.527.38-1.112.585-1.698 29.451 8.752 57.033 4.947 81.723-13.494 24.748-18.47 36.084-43.936 36.084-75.344ZM189.774 26.427c9.233 6.41 16.742 14.138 23.025 23.388-2.105.995-4.062 1.902-5.902 2.78-2.601-4.625-4.939-9.279-7.744-13.582-2.805-4.273-6.106-8.225-9.379-12.586Z"/><path d="M85.434 157.211c-3.974 3.161-8.123 6.117-11.863 9.542-12.593 11.445-22.907 24.822-32.549 38.754-2.25 3.251-4.5 6.499-7.187 9.601.263-.993.292-2.135.789-2.984 4.908-8.109 9.583-16.392 14.872-24.237 9.817-14.519 21.241-27.749 34.01-39.721 7.187-6.733 14.93-12.879 22.293-19.436 2.425-2.166 4.616-4.625 6.574-7.201 2.455-3.249 1.724-6.118-1.782-8.225-3.623-2.137-7.626-3.015-11.717-3.893-13.615-2.986-26.793-7.201-38.1-15.778-1.286-.965-2.425-2.166-3.623-3.249a1.46 1.46 0 0 1 .204-.234c4.208 1.99 8.59 2.693 13.149 1.58.175-.058.38-.087.525-.175.118-.058.176-.146.468-.41-10.694-3.922-21.242-7.874-29.832-16.391 5.873.497 11.366 1.463 17.297-.206-9.875-1.55-18.553-4.946-26.997-9.161-8.24-4.098-17.093-4.596-26.121-3.6-.234.029-.439 0-.701-.176 7.304-5.181 15.398-7.494 24.163-6.645-2.162-2.986-4.383-6.088-6.633-9.191l.497-.498c8.327 5.123 17.005 9.455 26.94 10.83-.702-.321-1.403-.673-2.134-.936-6.837-2.547-13.06-6.147-17.063-12.411-2.075-3.25-3.448-6.967-4.763-10.596-2.6-7.142-4.938-14.372-7.363-21.573-.204-.586-.292-1.2-.438-1.815l.146-.146c3.39 5.034 6.457 10.332 10.256 15.045 7.304 9.074 16.888 15.104 27.67 19.26 10.05 3.894 20.51 5.68 31.263 5.708 1.198 0 2.366-.175 3.564-.263 6.107-.585 11.834.673 17.385 3.161 8.853 3.981 17.414 8.372 24.719 14.9 1.169 1.053 2.337 2.107 3.389 3.278 2.016 2.254 2.104 3.805.234 6.205-4.003 5.181-7.188 10.801-9.058 17.066-.906 3.073-1.431 6.38-1.373 9.571.117 7.699 6.048 11.27 12.447 11.826 7.305.644 14.375-.966 21.3-2.957 6.136-1.756 12.155-3.893 18.145-5.854v-7.669c1.022 1.756 1.752 3.132 2.6 4.391 2.308 3.512 5.931 5.503 9.204 7.932 2.57 1.903 5.084 3.893 7.391 6.089 1.958 1.844 2.688 4.303 2.279 6.966-.263.088-.409.205-.496.176-5.434-2.108-10.898-.527-16.362-.205-11.483.702-21.709 5.825-32.228 9.835-9.846 3.747-19.634 7.698-28.604 13.348-2.893 1.844-5.785 3.834-8.298 6.147-3.828 3.512-5.756 8.02-5.581 13.318.029 1.054 0 2.137 0 3.659-3.009-7.669-1.519-15.045-.614-22.51-.292.088-.496.118-.584.205-7.48 9.748-13.82 20.11-17.122 32.052-5.873 21.193-2.308 41.097 8.941 59.684 3.273 5.416 7.363 10.305 11.074 15.455.263.353.496.732.73 1.085a.789.789 0 0 0-.204.233c-1.724-1.142-3.594-2.079-5.114-3.453-13.528-12.353-21.329-27.692-23.812-45.811-1.666-12.263-.292-24.295 2.483-36.237.059-.293.117-.586.03-.996-12.915 12.938-23.23 27.985-34.507 42.239-.146-.087-.263-.176-.41-.235.38-.906.731-1.815 1.14-2.693 5.464-11.679 12.593-22.304 20.453-32.461 4.529-5.854 9.262-11.592 13.879-17.358.32-.38.555-.82.847-1.229.117-.147.234-.264.321-.41.088-.088.176-.176.234-.264-.146.03-.263.03-.409.059.03.088-.117.176-.263.293Z"/><path d="M239.764 46.741c-6.575 3.044-11.688 8.138-17.414 12.411-3.449 2.576-7.45 3.806-11.512 4.947a8.635 8.635 0 0 0-1.579.585c7.072-.38 14.2 1.171 21.272-.79-10.197 7.435-20.804 13.787-33.717 14.753 1.109 1.434 1.87 1.639 10.488 2.78-9.233 4.625-16.157 12.704-26.033 17.27-1.198-3.892-2.338-7.551-3.477-11.24-.146-.029-.292-.029-.438-.058-.439 4.127-1.023 8.225-1.228 12.382-.087 1.697-.73 2.576-2.045 3.161a77.3 77.3 0 0 1-23.667 6.498c-1.081.117-2.191.205-3.798.351.614-.878.877-1.375 1.256-1.814 4.967-5.855 10.022-11.621 14.902-17.534 5.785-7.025 10.314-14.723 11.775-23.885.292-1.874 1.694-2.078 3.155-2.371 4.003-.79 8.035-1.405 11.951-2.517 17.706-4.918 33.63-13.407 48.209-24.53.789-.585 1.579-1.17 2.514-1.639-1.901 4.83-4.88 8.928-8.357 13.113a456.782 456.782 0 0 0 7.743-1.873ZM.117 10.796c6.545 1.171 12.009 3.952 14.989 10.275 1.11 2.312 2.162 4.683 3.01 7.083 1.548 4.39 3.418 8.606 6.164 12.675-1.052-.41-2.104-.761-3.126-1.2-5.61-2.488-9.73-6.381-11.483-12.411C7.86 20.924 4.704 15.48 0 10.943l.117-.147Z"/><path d="M253.38 53.941c-2.98 2.957-6.574 5.006-10.665 5.503-4.236.498-8.561.117-12.739.117.146-.117.496-.438.907-.702 3.682-2.605 7.305-5.327 11.102-7.757 2.192-1.405 4.588-2.634 7.071-3.366 3.974-1.2 7.333-3.132 10.051-6.293.146-.176.409-.264.614-.381l.087.059c-2.22 5.795-6.165 10.098-11.395 13.61.789-.087 1.607-.116 2.396-.233.848-.147 1.694-.38 2.571-.556ZM264.394 22.769c-2.716 6.293-4.936 13.025-11.482 16.743-2.92 1.668-6.135 2.4-9.759 2.517 3.594-5.65 6.604-11.416 13.149-14.196 2.921-1.26 5.435-3.367 8.092-5.064ZM45.376 84.148c-.701-.292-1.432-.585-2.133-.878-4.09-1.727-8.18-3.512-12.3-5.122-2.63-1.025-4.968-2.4-6.72-4.625-2.309-2.957-5.581-3.864-9.555-4.186 6.662-2.078 12.388-.527 17.443 2.927 4.587 3.132 8.62 7.084 12.885 10.684.263.234.41.586.614.878-.088.118-.146.205-.234.322ZM40.496 87.486c7.597 2.84 15.222 5.62 21.3 10.801-5.873 1.376-16.216-2.488-21.3-10.8ZM213.03 80.375c2.248-2.4 5.025-3.893 8.15-4.742 3.478-.966 6.983-1.756 10.549-2.517-3.712 2.722-6.867 6.352-12.097 6.44-2.22.029-4.441.497-6.661.79l.059.03Z"/></g><defs><clipPath id="a"><path fill="#fff" d="M0 0h265v256H0z"/></clipPath></defs></svg>
